dist/img/svg/media__item__logo--5--mob.svg

<svg width="116" height="20" viewBox="0 0 116 20" fill="none" xmlns="http://www.w3.org/2000/svg">
<g clip-path="url(#clip0_7202_31342)">
<path d="M16.8499 0H3.14241C1.41895 0 -0.00390625 1.42284 -0.00390625 3.14629V16.8537C-0.00390625 18.5772 1.41895 20 3.14241 20H16.8499C18.5734 20 19.9962 18.5772 19.9962 16.8537V3.14629C19.9962 1.42284 18.5934 0 16.8499 0ZM14.9661 4.66934H6.72961V8.87775H14.9661V10.501H6.72961V15.3106H14.9661V16.9539H5.02619V3.04609H14.9661V4.66934Z" fill="#2A2A2A"/>
<path d="M86.3673 8.93809C86.4876 8.49721 86.6479 8.09641 86.8884 7.75573C87.1289 7.41505 87.3894 7.11445 87.69 6.87397C87.9906 6.63349 88.3313 6.45313 88.672 6.31285C89.0327 6.19261 89.3734 6.11245 89.7341 6.11245C90.2351 6.11245 90.7161 6.23268 91.177 6.47316C91.6179 6.71365 92.0187 7.03429 92.3594 7.45513C92.7 7.87597 92.9205 8.37697 93.0808 8.93809H86.3673ZM98.3714 13.1265H96.3674V15.1906H98.3714V13.1265ZM105.245 4.60944C104.844 4.56936 104.444 4.5894 104.023 4.66956C103.602 4.74972 103.201 4.91004 102.84 5.13048C102.46 5.35092 102.139 5.65152 101.878 6.01225V4.84992H100.235V15.1706H101.939V9.19862C101.939 8.67757 102.039 8.23669 102.199 7.85593C102.379 7.47517 102.62 7.17456 102.921 6.93408C103.221 6.6936 103.582 6.51325 103.983 6.41305C104.383 6.31285 104.804 6.27276 105.245 6.29281V4.60944ZM115.426 4.84992H113.722V11.1826C113.722 11.7036 113.602 12.1645 113.362 12.5653C113.121 12.9661 112.8 13.2868 112.4 13.5072C111.999 13.7477 111.538 13.868 111.017 13.868C110.476 13.868 109.995 13.7477 109.634 13.5273C109.253 13.3068 108.973 12.9862 108.772 12.5854C108.572 12.1846 108.472 11.7036 108.472 11.1425V4.84992H106.788V11.0623C106.788 11.7036 106.889 12.2848 107.049 12.8259C107.229 13.367 107.49 13.8078 107.83 14.2086C108.171 14.5894 108.592 14.89 109.073 15.1104C109.574 15.3309 110.135 15.4311 110.756 15.4311C111.398 15.4311 111.959 15.3108 112.48 15.0704C112.981 14.8299 113.422 14.4892 113.782 14.0684V15.1906H115.426V4.84992ZM92.9004 11.9641C92.6199 12.5653 92.2191 13.0463 91.698 13.367C91.177 13.6876 90.5557 13.868 89.8343 13.868C89.4135 13.868 88.9926 13.7878 88.5918 13.6475C88.191 13.4872 87.8303 13.2668 87.4896 12.9862C87.1689 12.6856 86.8884 12.3249 86.6679 11.904C86.4475 11.4832 86.3072 11.0022 86.2471 10.4611H94.9245C94.9245 9.71966 94.8243 9.05833 94.644 8.43709C94.4636 7.81585 94.2031 7.27477 93.8624 6.81385C93.5217 6.33289 93.1409 5.93208 92.7 5.61144C92.2592 5.2908 91.7782 5.03028 91.2772 4.84992C90.7762 4.6896 90.2551 4.5894 89.7141 4.5894C88.9926 4.5894 88.3112 4.72968 87.69 5.01024C87.0687 5.2908 86.5076 5.6916 86.0467 6.17256C85.5657 6.67357 85.205 7.25473 84.9244 7.89601C84.6639 8.55733 84.5236 9.25874 84.5236 10.0002C84.5236 10.7617 84.6639 11.4631 84.9445 12.1245C85.205 12.7858 85.5858 13.3469 86.0667 13.8479C86.5477 14.3289 87.1088 14.7096 87.7501 14.9902C88.3914 15.2708 89.0928 15.411 89.8343 15.411C90.6359 15.411 91.3574 15.2708 91.9986 15.0102C92.6399 14.7497 93.201 14.3489 93.662 13.8479C94.1229 13.3269 94.4636 12.7056 94.7241 11.9641H92.9004ZM84.3433 4.84992H82.5396L79.6939 13.0663L76.8282 4.84992H75.0246L78.7721 15.1706H80.5957L84.3433 4.84992ZM73.3211 4.84992H71.6177V15.1706H73.3211V4.84992ZM69.9744 13.6074C69.6538 13.6275 69.3532 13.6074 69.0726 13.5473C68.7921 13.4872 68.5315 13.367 68.3111 13.2066C68.0906 13.0463 67.9103 12.8058 67.79 12.5052C67.6698 12.2046 67.5896 11.8439 67.5896 11.383V6.47316H69.9343V4.84992H67.5896V2.64551H65.9063V4.84992H64.5034V6.47316H65.9063V11.383C65.9063 12.0443 66.0065 12.6255 66.2069 13.1265C66.4073 13.6275 66.6878 14.0283 67.0486 14.369C67.4093 14.6896 67.8301 14.9301 68.3311 15.0704C68.8321 15.2106 69.3732 15.2507 69.9744 15.1706V13.6074ZM63.0004 4.84992H61.297V11.1826C61.297 11.7036 61.1768 12.1645 60.9363 12.5653C60.6958 12.9661 60.3752 13.2868 59.9744 13.5072C59.5735 13.7277 59.1126 13.868 58.5916 13.868C58.0505 13.868 57.5695 13.7477 57.2088 13.5273C56.828 13.3068 56.5475 12.9862 56.3471 12.5854C56.1467 12.1846 56.0465 11.7036 56.0465 11.1425V4.84992H54.3631V11.0623C54.3631 11.7036 54.4633 12.2848 54.6236 12.8259C54.804 13.3469 55.0645 13.8078 55.4052 14.2086C55.7459 14.5894 56.1667 14.89 56.6477 15.1104C57.1487 15.3309 57.7098 15.4311 58.3311 15.4311C58.9723 15.4311 59.5335 15.3108 60.0545 15.0704C60.5555 14.8299 60.9964 14.4892 61.3571 14.0684V15.1906H63.0004V4.84992ZM52.6597 11.9641H50.836C50.6556 12.3449 50.4152 12.6655 50.1146 12.9461C49.814 13.2267 49.4933 13.4271 49.1125 13.5674C48.7318 13.7076 48.3109 13.7878 47.85 13.7878C47.369 13.7878 46.9282 13.6876 46.5073 13.4872C46.0865 13.2868 45.7257 13.0263 45.4051 12.6856C45.0845 12.3449 44.844 11.9441 44.6636 11.4832C44.4833 11.0223 44.3831 10.5413 44.3831 10.0203C44.3831 9.49922 44.4833 8.99821 44.6636 8.53729C44.844 8.07637 45.0845 7.67557 45.4051 7.31485C45.7257 6.95413 46.0865 6.69361 46.5073 6.49321C46.9282 6.29281 47.369 6.1926 47.85 6.1926C48.2909 6.1926 48.7117 6.27277 49.0925 6.41305C49.4733 6.55333 49.814 6.77376 50.0945 7.03428C50.3951 7.31485 50.6356 7.63549 50.836 8.01625H52.6597C52.4192 7.31485 52.0785 6.71365 51.6176 6.1926C51.1567 5.67156 50.5955 5.27076 49.9743 4.9902C49.333 4.70964 48.6316 4.56936 47.85 4.56936C47.1286 4.56936 46.4672 4.70964 45.846 4.9902C45.2247 5.27076 44.6636 5.67156 44.2027 6.15252C43.7217 6.65352 43.361 7.23469 43.0804 7.87597C42.8199 8.53729 42.6796 9.2387 42.6796 9.98018C42.6796 10.7417 42.8199 11.4431 43.0804 12.0844C43.341 12.7457 43.7217 13.3068 44.2027 13.8078C44.6837 14.3088 45.2247 14.6896 45.846 14.9702C46.4672 15.2507 47.1486 15.391 47.85 15.391C48.6316 15.391 49.333 15.2507 49.9743 14.9702C50.6156 14.6896 51.1567 14.2888 51.6176 13.7678C52.0785 13.2868 52.4192 12.6655 52.6597 11.9641ZM32.7798 8.93809C32.9 8.49721 33.0603 8.09641 33.3008 7.75573C33.5413 7.41505 33.8018 7.11445 34.1024 6.87397C34.403 6.63349 34.7437 6.45313 35.0844 6.31285C35.4451 6.19261 35.7858 6.11245 36.1465 6.11245C36.6475 6.11245 37.1285 6.23268 37.5894 6.47316C38.0303 6.71365 38.4311 7.03429 38.7718 7.45513C39.0924 7.87597 39.3329 8.37697 39.4932 8.93809H32.7798ZM39.3129 11.9641C39.0323 12.5653 38.6315 13.0463 38.1105 13.367C37.5894 13.6876 36.9682 13.868 36.2467 13.868C35.8259 13.868 35.405 13.7878 35.0042 13.6475C34.6034 13.4872 34.2427 13.2668 33.902 12.9862C33.5613 12.6856 33.3008 12.3249 33.0804 11.904C32.8599 11.4832 32.7196 11.0022 32.6595 10.4611H41.3369C41.3369 9.71966 41.2367 9.05833 41.0564 8.43709C40.876 7.81585 40.6155 7.27477 40.2748 6.81385C39.9341 6.33289 39.5534 5.93208 39.1125 5.61144C38.6716 5.2908 38.1906 5.03028 37.6896 4.84992C37.1886 4.6896 36.6676 4.5894 36.1265 4.5894C35.405 4.5894 34.7237 4.72968 34.1024 5.01024C33.4812 5.2908 32.92 5.6916 32.4591 6.17256C31.9982 6.65353 31.6174 7.25473 31.3369 7.89601C31.0763 8.55733 30.9361 9.25874 30.9361 10.0002C30.9361 10.7617 31.0763 11.4631 31.3569 12.1245C31.6174 12.7858 31.9982 13.3469 32.4792 13.8479C32.9601 14.3289 33.5212 14.7096 34.1625 14.9902C34.8038 15.2708 35.5052 15.411 36.2467 15.411C37.0483 15.411 37.7698 15.2708 38.4111 15.0102C39.0524 14.7497 39.6135 14.3489 40.0744 13.8479C40.5353 13.3269 40.876 12.7056 41.1365 11.9641H39.3129ZM28.8318 15.1706H30.916L27.2086 9.8399L30.6755 4.84992H28.5914L26.1865 8.53729L23.7817 4.84992H21.6975L25.1444 9.8399L21.457 15.1706H23.5412L26.1865 11.1425L28.8318 15.1706Z" fill="#2A2A2A"/>
<path d="M73.3284 1.2627H71.625V3.28674H73.3284V1.2627Z" fill="#2A2A2A"/>
</g>
<defs>
<clipPath id="clip0_7202_31342">
<rect width="115.431" height="20" fill="white"/>
</clipPath>
</defs>
</svg>

<svg width="116" height="20" viewBox="0 0 116 20" fill="none" xmlns="http://www.w3.org/2000/svg"><g clip-path="url(#clip0_7202_31342)" fill="#2A2A2A"><path d="M16.85 0H3.142A3.165 3.165 0 00-.004 3.146v13.708A3.165 3.165 0 003.142 20H16.85a3.165 3.165 0 003.146-3.146V3.146A3.152 3.152 0 0016.85 0zm-1.884 4.67H6.73v4.208h8.236V10.5H6.73v4.81h8.236v1.643h-9.94V3.046h9.94V4.67zm71.401 4.268c.12-.44.28-.842.521-1.182.24-.341.501-.642.802-.882.3-.24.641-.42.982-.561.36-.12.701-.2 1.062-.2.501 0 .982.12 1.443.36.44.24.842.561 1.182.982.341.421.562.922.722 1.483h-6.714zm12.004 4.188h-2.004v2.065h2.004v-2.065zm6.874-8.517a4.21 4.21 0 00-1.222.06c-.421.08-.822.241-1.183.461-.38.22-.701.522-.962.882V4.85h-1.643v10.32h1.704V9.2c0-.521.1-.962.26-1.343.18-.38.421-.681.722-.922.3-.24.661-.42 1.062-.521.4-.1.821-.14 1.262-.12V4.609zm10.181.24h-1.704v6.334c0 .52-.12.982-.36 1.382a2.557 2.557 0 01-.962.942c-.401.24-.862.361-1.383.361-.541 0-1.022-.12-1.383-.34a2.183 2.183 0 01-.862-.943c-.2-.4-.3-.881-.3-1.443V4.85h-1.684v6.212c0 .642.101 1.223.261 1.764.18.541.441.982.781 1.383.341.38.762.681 1.243.901.501.22 1.062.321 1.683.321.642 0 1.203-.12 1.724-.36a3.98 3.98 0 001.302-1.003v1.123h1.644V4.85zM92.9 11.965c-.28.601-.68 1.082-1.202 1.403-.521.32-1.142.501-1.864.501-.42 0-.841-.08-1.242-.22a4.102 4.102 0 01-1.102-.662 4.034 4.034 0 01-.822-1.082c-.22-.42-.36-.902-.42-1.443h8.676c0-.741-.1-1.403-.28-2.024a5.091 5.091 0 00-.782-1.623A5.114 5.114 0 0092.7 5.61a5.736 5.736 0 00-1.423-.761 5.113 5.113 0 00-1.563-.26c-.721 0-1.403.14-2.024.42a5.318 5.318 0 00-1.643 1.163 5.813 5.813 0 00-1.123 1.723c-.26.661-.4 1.363-.4 2.104 0 .762.14 1.463.42 2.124a5.23 5.23 0 001.123 1.724 5.44 5.44 0 001.683 1.142c.641.28 1.343.421 2.084.421a5.72 5.72 0 002.165-.4 4.625 4.625 0 001.663-1.163c.46-.521.802-1.142 1.062-1.884H92.9zM84.343 4.85H82.54l-2.846 8.216-2.866-8.216h-1.803l3.747 10.32h1.824l3.747-10.32zm-11.022 0h-1.703v10.32h1.703V4.85zm-3.347 8.757c-.32.02-.62 0-.901-.06a2.02 2.02 0 01-.762-.34c-.22-.16-.4-.401-.521-.702-.12-.3-.2-.661-.2-1.122v-4.91h2.344V4.85H67.59V2.646h-1.684V4.85h-1.403v1.623h1.403v4.91c0 .661.1 1.243.3 1.744.201.5.482.901.843 1.242a3.2 3.2 0 001.282.701c.501.14 1.042.18 1.643.1v-1.563zM63 4.85h-1.703v6.333c0 .52-.12.982-.36 1.382a2.552 2.552 0 01-.963.942c-.4.22-.861.361-1.382.361-.541 0-1.023-.12-1.383-.34a2.18 2.18 0 01-.862-.943c-.2-.4-.3-.881-.3-1.443V4.85h-1.684v6.212c0 .642.1 1.223.26 1.764.181.52.442.982.782 1.383.34.38.762.681 1.243.901.5.22 1.062.321 1.683.321.641 0 1.202-.12 1.723-.36a3.985 3.985 0 001.303-1.003v1.123H63V4.85zm-10.34 7.114h-1.824c-.18.38-.42.701-.721.982a2.9 2.9 0 01-1.003.621c-.38.14-.801.22-1.262.22-.481 0-.922-.1-1.343-.3-.42-.2-.781-.46-1.102-.801a3.68 3.68 0 01-.741-1.203 3.96 3.96 0 01-.28-1.463c0-.52.1-1.022.28-1.483.18-.46.42-.861.741-1.222a3.39 3.39 0 011.102-.822c.421-.2.862-.3 1.343-.3.44 0 .862.08 1.242.22.381.14.722.36 1.002.621.301.28.542.601.742.982h1.824a5.287 5.287 0 00-1.042-1.823 4.84 4.84 0 00-1.644-1.203c-.641-.28-1.342-.42-2.124-.42a4.79 4.79 0 00-2.004.42 5.318 5.318 0 00-1.643 1.163 5.813 5.813 0 00-1.123 1.723c-.26.661-.4 1.363-.4 2.104 0 .762.14 1.463.4 2.104a5.235 5.235 0 001.123 1.724 5.224 5.224 0 001.643 1.162c.621.28 1.303.421 2.004.421.782 0 1.483-.14 2.124-.42a4.655 4.655 0 001.644-1.203c.46-.481.801-1.103 1.042-1.804zM32.78 8.938c.12-.44.28-.842.52-1.182.241-.341.502-.642.802-.882.301-.24.642-.42.982-.561.361-.12.702-.2 1.063-.2.5 0 .982.12 1.442.36.441.24.842.561 1.183.982.32.421.56.922.721 1.483H32.78zm6.533 3.026c-.28.601-.681 1.082-1.203 1.403-.52.32-1.142.501-1.863.501-.421 0-.842-.08-1.243-.22-.4-.16-.761-.381-1.102-.662-.34-.3-.601-.661-.822-1.082-.22-.42-.36-.902-.42-1.443h8.677c0-.741-.1-1.403-.28-2.024a5.091 5.091 0 00-.782-1.623 5.114 5.114 0 00-1.163-1.203 5.739 5.739 0 00-1.422-.761 5.112 5.112 0 00-1.563-.26c-.722 0-1.403.14-2.025.42a5.32 5.32 0 00-1.643 1.163 5.951 5.951 0 00-1.122 1.723c-.26.661-.4 1.363-.4 2.104 0 .762.14 1.463.42 2.124a5.23 5.23 0 001.122 1.724 5.44 5.44 0 001.684 1.142c.64.28 1.342.421 2.084.421.801 0 1.523-.14 2.164-.4a4.624 4.624 0 001.663-1.163c.461-.521.802-1.142 1.063-1.884h-1.824zm-10.481 3.207h2.084L27.209 9.84l3.466-4.99h-2.084l-2.405 3.687-2.404-3.687h-2.084l3.446 4.99-3.687 5.33h2.084l2.645-4.027 2.646 4.028zM73.328 1.263h-1.703v2.024h1.703V1.263z"/></g><defs><clipPath id="clip0_7202_31342"><path fill="#fff" d="M0 0h115.431v20H0z"/></clipPath></defs></svg>
